X:1
T:Title
%%score { 1 | 2 }
L:1/8
M:3/4
K:A
V:1 treble nm="Grand Piano"
V:2 bass 
V:1
 z2 z2[Q:1/4=100] [Ec]>[CA] | [CE]3 [EA] [DB]>[DE] | [Ec]2 [CA]2 [Ec]>[CA] | [CE]3 [EA] [DB]>[DE] | %4
[M:2/4] [Ec]4 |[M:1/4] [DFd]>[DFB] |[M:3/4] [B,DF]3 [B,FB] [Ec]>[EF] | [Dd]2 [DB]2 [Fd]>[FB] | %8
 [DF]3 [FB] [Ec]>[EF] | [Dd]6 | [FA]2 [FA]2 z2 | c2 c2 z2 |[M:4/4] e3 c B<B BB | [CA]6 z2 | %14
 [EBd]2 .[EGd]2 [EBd]2 .[EGd]2 | [EBd]4 [EAc]2 z2 | [Fd]3 [Fc] [FB]2 [FA]2 | G3 A B2 z2 | %18
 [Fce]2 .[F^Ae]2 [Fce]2 .[FAe]2 |[M:9/8] [Fce]3- [Fce] [FBd]2 z3 | %20
[M:4/4] [EAc]3 [CEA] [DAB]2 [DEGB]2 |[M:3/4] [CEA]6 |] %22
V:2
 z2 z2 [A,,A,]>[A,,A,] | [A,,A,]3 [C,A,] [E,G,]>[E,G,] | [A,,A,]4 [A,,A,]>[A,,A,] | %3
 [A,,A,]3 [C,A,] [E,G,]>[E,G,] |[M:2/4] [A,,A,]4 |[M:1/4] B,,>B,, |[M:3/4] B,,3 D, [F,^A,]>[F,A,] | %7
 [B,,B,]2 [B,,F,]2 [B,,B,]>[B,,B,] | [B,,B,]3 [D,B,] [F,^A,]>[F,A,] | [B,,B,]6 | %10
 [^D,=C]2 [D,C]2 z2 | [E,A,E]2 [E,A,E]2 z2 | %12
[M:4/4] [E,CE]3 [E,A,E] [E,G,E]<[E,G,E] [E,G,D][E,G,D] | [A,,A,]6 z2 | %14
 [G,,G,]2 .[E,,E,]2 [G,,G,]2 .[E,,E,]2 | [G,,G,]2 [E,,E,]2 [A,,A,]2 z2 | %16
 [B,,B,]3 [C,^A,] [D,B,]2 [^D,B,]2 | [E,B,E]3 [F,B,^D] [G,B,E]2 z2 | %18
 [^A,,^A,]2 .[F,,F,]2 [A,,A,]2 .[F,,F,]2 |[M:9/8] [^A,,^A,]2 [F,,F,]- [F,,F,] [B,,B,]2 z3 | %20
[M:4/4] [E,,E,]3 [E,,E,] [E,,E,]2 [E,,E,]2 |[M:3/4] [A,,A,]6 |] %22

